img/icons/eye.svg

<svg width="20" height="20" viewBox="0 0 20 20" fill="none" xmlns="http://www.w3.org/2000/svg">
<path d="M10.0001 13.0809C11.7006 13.0809 13.0791 11.7024 13.0791 10.0019C13.0791 8.30138 11.7006 6.92285 10.0001 6.92285C8.29955 6.92285 6.92102 8.30138 6.92102 10.0019C6.92102 11.7024 8.29955 13.0809 10.0001 13.0809Z" fill="black"/>
<path d="M19.6932 9.14873C17.3265 6.28869 13.7438 3.53564 10 3.53564C6.25555 3.53564 2.67205 6.29061 0.306845 9.14873C-0.102282 9.64291 -0.102282 10.3603 0.306845 10.8545C0.901484 11.5731 2.14811 12.9602 3.8131 14.1722C8.00632 17.2247 11.9845 17.2315 16.187 14.1722C17.852 12.9602 19.0986 11.5731 19.6932 10.8545C20.1012 10.3613 20.1033 9.64453 19.6932 9.14873ZM10 5.69097C12.3771 5.69097 14.3107 7.62461 14.3107 10.0016C14.3107 12.3786 12.3771 14.3123 10 14.3123C7.62302 14.3123 5.68939 12.3786 5.68939 10.0016C5.68939 7.62461 7.62302 5.69097 10 5.69097Z" fill="black"/>
</svg>

<svg width="20" height="20" viewBox="0 0 20 20" fill="none" xmlns="http://www.w3.org/2000/svg"><path d="M10 13.08a3.079 3.079 0 1 0 0-6.157 3.079 3.079 0 0 0 0 6.158Z" fill="#000"/><path d="M19.693 9.149c-2.367-2.86-5.95-5.613-9.693-5.613-3.744 0-7.328 2.755-9.693 5.613a1.339 1.339 0 0 0 0 1.706c.594.718 1.841 2.105 3.506 3.317 4.193 3.053 8.171 3.06 12.374 0 1.665-1.212 2.912-2.599 3.506-3.318.408-.493.41-1.21 0-1.705ZM10 5.69A4.315 4.315 0 0 1 14.31 10 4.315 4.315 0 0 1 10 14.313a4.315 4.315 0 0 1-4.31-4.31A4.315 4.315 0 0 1 10 5.69Z" fill="#000"/></svg>
